X: 9
T: No_107_Song_When_Welcoming_Visitors.krn
N: Derived from No_107_Song_When_Welcoming_Visitors.krn
%%abc-version 2.0
%%abcx-abcm2ps-target-version 5.9.1 (29 Sep 2008)
%%abc-creator hum2abc beta
%%abcx-conversion-date 2019/03/15 08:36:49
%%humdrum-veritas 3327287034
%%humdrum-veritas-data 1065863713
%%linebreak <none>
%%barnumbers 0
L: 1/8
M: 2/4
%%staves {1 2}
V: 1 clef=bass
V: 2 clef=bass
K: F
[V:1] [K:clef=bass][M:2/4]A,A, A,G, | 
[V:2] [K:clef=bass][M:2/4]G,,2G,,2 | 
[V:1] A,2!fermata!G,2 | 
[V:2] G,,2G,,2 | 
[V:1] F,F,F,2 | 
[V:2] G,,2G,,2 | 
[V:1] G,/F,/F,F,2 ||  
[V:2] z4 ||  
[V:1] [M:3/4]C,C,C,4 | 
[V:2] [M:3/4]z6 | 
[V:1] G,/F,/F,F,4 | 
[V:2] z6 | 
[V:1] C,3F,F,2 | 
[V:2] z6 | 
[V:1] C,C,C,4 | 
[V:2] z6 | 
[V:1] B,,C, B,,C, C,3/F,/ ||  
[V:2] z6 ||  
[V:1] [M:2/4]F,2C,C, | 
[V:2] [M:2/4]z4 | 
[V:1] C,4 | 
[V:2] z4 | 
[V:1] C,4 |]  
[V:2] z4 |]  



